**kern	**kern	**dynam
*part1	*part1	*part1
*staff2	*staff1	*
*I"Piano	*	*
*clefF4	*clefG2	*
*k[]	*k[]	*
=1	=1	=1
16G)	16B 16d 16f	>
*clefG2	*	*
*^	*^	*
(16BLL	[8.B	(16bLL	8.b	]
16qqg/	.	16qqgg/	.	.
16f	.	16ff	.	.
16eJJ	.	16eeJJ	.	.
16fLL	8BL]	8.ffL	16ffLL	.
16d	.	.	16dd	.
16c	16rc	.	16cc	.
16eJJ)	16G#XJk 16B	16eeJk)	16bJJ	.
*v	*v	*	*	*
*	*v	*v	*
=	=	=
8A	16r	.
.	16cc 16ee	<
8d	16r	.
.	16f 16a	.
8e	16r	.
.	16a 16cc	.
*clefF4	*	*
8E	16r	.
.	16g#X 16b	.
=	=	=
16F^ 16d	16a 16dd	[
(16ALL	(16aLL	<
16qqe/	16qqee/	.
16d	16dd	.
16c#XJJ	16cc#XJJ	.
16dLL	16ddLL	[
16A	16a	.
16G	16gn	.
16FJJ)	16fJJ)	.
=	=	=
8Cn	16r	.
.	16e 16a 16ccn	.
8F	16r	.
.	16A 16c	.
!	!LO:TX:a:i:t=dim.	!
8D	16r	.
.	8AL 8c	.
8E	.	.
.	16G#XJk 16B	.
=	=	=
*^	*	*
[2AA	(4AA	[2A<	.
.	4GGn 4E	.	.
=	=	=	=
*	*^	*	*
2A_	16AA] 16D	4FF\)	2d [2a	.
!	!	!	!LO:TX:a:i:t=dim.	!
.	16AALL	.	.	<
.	16qqC/	.	.	.
.	16BB-X	.	.	.
.	16GGJJ	.	.	.
.	(16AALL	4AA\	.	[ >
.	16FF	.	.	.
.	16EE	.	.	.
.	16DDJJ	.	.	.
*	*v	*v	*	*
=	=	=	=
2A]	2AAA) 2AA	2c#X 2a]	]
*v	*v	*	*
==	==	==
*-	*-	*-
!!!system-decoration: {(s1,s2)}
!!!RDF**kern: < = below
